src/pos-icons/music-box-multiple-outline.svg

<svg height="24" viewBox="0 0 24 24" width="24" xmlns="http://www.w3.org/2000/svg"><path d="m20 2h-12a2 2 0 0 0 -2 2v12a2 2 0 0 0 2 2h12a2 2 0 0 0 2-2v-12a2 2 0 0 0 -2-2m0 14h-12v-12h12m-7.5 11a2.5 2.5 0 0 0 2.5-2.5v-5.5h3v-2h-4v5.5c-.42-.31-.93-.5-1.5-.5a2.5 2.5 0 0 0 -2.5 2.5 2.5 2.5 0 0 0 2.5 2.5m-8.5-9h-2v14a2 2 0 0 0 2 2h14v-2h-14"/></svg>

<?xml version="1.0" encoding="UTF-8"?><!DOCTYPE svg PUBLIC "-//W3C//DTD SVG 1.1//EN" "http://www.w3.org/Graphics/SVG/1.1/DTD/svg11.dtd"><svg xmlns="http://www.w3.org/2000/svg" xmlns:xlink="http://www.w3.org/1999/xlink" version="1.1" id="mdi-music-box-multiple-outline" width="24" height="24" viewBox="0 0 24 24"><path d="M20,2H8A2,2 0 0,0 6,4V16A2,2 0 0,0 8,18H20A2,2 0 0,0 22,16V4A2,2 0 0,0 20,2M20,16H8V4H20M12.5,15A2.5,2.5 0 0,0 15,12.5V7H18V5H14V10.5C13.58,10.19 13.07,10 12.5,10A2.5,2.5 0 0,0 10,12.5A2.5,2.5 0 0,0 12.5,15M4,6H2V20A2,2 0 0,0 4,22H18V20H4" /></svg>
